X: 191
T: No_4_Buffalo_Dance_Song_(d).krn
N: Derived from No_4_Buffalo_Dance_Song_(d).krn
%%abc-version 2.0
%%abcx-abcm2ps-target-version 5.9.1 (29 Sep 2008)
%%abc-creator hum2abc beta
%%abcx-conversion-date 2019/03/15 08:38:45
%%humdrum-veritas 3584211636
%%humdrum-veritas-data 1601395914
%%linebreak <none>
%%barnumbers 0
L: 1/8
M: 2/4
K: F clef=bass
[K:clef=bass][M:2/4]F,/A,3/ (3A,G,F, | 
(3A,G,F, F,/F,3/ ||  
[M:3/4](3A,G,F, (3G,F,D, D, z/ D,/ ||  
[M:3/8]F,3/F,/F,/D,/ ||  
[M:2/4]F,2F,/F,3/ | 
(3F,G,F, (3G,F,D, | 
D, z/ D,/ D,3/F,/ ||  
[M:3/8]F,3/F,/F,/D,/ ||  
[M:2/4]F,2F,/F,3/ | 
F,/A,3/ (3A,G,F, [I:setbarnb 11]| 
(3A,G,F, F,/F,3/ ||  
[M:3/4](3A,G,F, (3G,F,D, D, z/ D,/ ||  
[M:3/8]F,3/F,/F,/D,/ ||  
[M:2/4]F,2F,/F,3/ ||  
[M:3/4](3F,G,F, (3G,F,D, D, z/ D,/ ||  
[M:3/8]F,3/F,/F,/D,/ ||  
[M:2/4]F,2F,/F,3/ :|]  
[M:3/4](3F,G,F, (3G,F,D, D, z [I:setbarnb 19]| 
[M:2/4]B,3B, | 
B,B, B,B, ||  
[M:3/4](B,3F,)B,2 | 
B,2z4



